cb/header--notification.svg

<svg viewBox="0 0 20 20" version="1.1" xmlns="http://www.w3.org/2000/svg" height="1em" width="1em">
  <g stroke="none" stroke-width="1" fill="none" fill-rule="evenodd">
    <path d="M7.17070571,17 L2.5,17 C2.22385763,17 2,16.7761424 2,16.5 L2,14.5 C2,14.3673918 2.05267842,14.2402148 2.14644661,14.1464466 L4,12.2928932 L4,9 C4,5.85466811 6.42023474,3.27461234 9.5,3.02053689 L9.5,1 L10.5,1 L10.5,3.02053689 C13.5797653,3.27461234 16,5.85466811 16,9 L16,12.2928932 L17.8535534,14.1464466 C17.9473216,14.2402148 18,14.3673918 18,14.5 L18,16.5 C18,16.7761424 17.7761424,17 17.5,17 L12.8292943,17 C12.4174579,18.1651924 11.3062188,19 10,19 C8.69378117,19 7.58254212,18.1651924 7.17070571,17 Z M8.26756439,17 C8.61337381,17.5978014 9.25971764,18 10,18 C10.7402824,18 11.3866262,17.5978014 11.7324356,17 L8.26756439,17 Z M13,16 L17,16 L17,14.7071068 L15.1464466,12.8535534 C15.0526784,12.7597852 15,12.6326082 15,12.5 L15,9 C15,6.23857625 12.7614237,4 10,4 C7.23857625,4 5,6.23857625 5,9 L5,12.5 C5,12.6326082 4.94732158,12.7597852 4.85355339,12.8535534 L3,14.7071068 L3,16 L7,16 L8,16 L12,16 L13,16 Z" fill="#000000" fill-rule="nonzero"/>
  </g>
</svg>

<svg viewBox="0 0 20 20" xmlns="http://www.w3.org/2000/svg" height="1em" width="1em">
  <path d="M7.17 17H2.5a.5.5 0 0 1-.5-.5v-2a.5.5 0 0 1 .146-.354L4 12.293V9a6 6 0 0 1 5.5-5.98V1h1v2.02A6 6 0 0 1 16 9v3.293l1.854 1.853A.5.5 0 0 1 18 14.5v2a.5.5 0 0 1-.5.5h-4.67a3.001 3.001 0 0 1-5.66 0Zm1.098 0a2 2 0 0 0 3.464 0H8.268ZM13 16h4v-1.293l-1.854-1.853A.5.5 0 0 1 15 12.5V9A5 5 0 0 0 5 9v3.5a.5.5 0 0 1-.146.354L3 14.707V16h10Z"/>
</svg>
